svgs/forkgram.svg

<svg xmlns="http://www.w3.org/2000/svg" viewBox="0 0 192 192"><path d="m122.729 69.271 30.339-30.339m-52.771 7.907L130.679 16.5m14.482 75.203L175.5 61.321m-30.339 30.382a31.731 31.731 0 0 1-22.43 9.284 31.734 31.734 0 0 1-22.427-9.291 31.734 31.734 0 0 1-9.291-22.427 31.731 31.731 0 0 1 9.284-22.43M16.5 175.5l83.797-83.797" fill="none" stroke="#000" stroke-width="12" stroke-linecap="round" stroke-linejoin="round"/></svg>

<svg
    xmlns="http://www.w3.org/2000/svg"
    viewBox="0 0 192 192"
    id="vector">
    <path
        id="path"
        d="M 122.729 69.271 L 153.068 38.932 M 100.297 46.839 L 130.679 16.5 M 145.161 91.703 L 175.5 61.321 M 145.161 91.703 C 139.213 97.647 131.14 100.989 122.731 100.987 C 114.323 100.986 106.25 97.642 100.304 91.696 C 94.358 85.75 91.014 77.677 91.013 69.269 C 91.011 60.86 94.353 52.787 100.297 46.839 M 16.5 175.5 L 100.297 91.703"
        fill="none"
        stroke="#000000"
        stroke-width="12"
        stroke-linecap="round"
        stroke-linejoin="round"/>
</svg>
